static/assets/images/icons/magnifier.svg

<svg width="256" height="256" viewBox="0 0 256 256" fill="none" xmlns="http://www.w3.org/2000/svg">
<path d="M232.27 225.259C239.913 217.61 239.909 205.216 232.264 197.571L190.289 155.603C198.084 142.814 202.214 128.128 202.226 113.15C202.226 67.7669 165.474 31.0157 120.121 31C74.768 31 38 67.759 38 113.126C38 158.478 74.7601 195.213 120.121 195.213C135.685 195.213 150.199 190.811 162.591 183.292L204.572 225.266C212.222 232.914 224.624 232.911 232.27 225.259ZM69.3162 113.134C69.3369 99.668 74.6951 86.7592 84.2167 77.2365C93.7382 67.7138 106.647 62.3537 120.113 62.331C133.579 62.3496 146.487 67.7075 156.008 77.2296C165.529 86.7518 170.885 99.661 170.902 113.126C170.881 126.588 165.525 139.493 156.006 149.013C146.488 158.533 133.583 163.891 120.121 163.914C106.657 163.889 93.7519 158.529 84.2323 149.008C74.7127 139.487 69.3547 126.582 69.3319 113.118L69.3162 113.134Z" fill="black"/>
</svg>

<svg xmlns="http://www.w3.org/2000/svg" fill="none" viewBox="0 0 256 256"><path fill="#000" d="M232.27 225.259c7.643-7.649 7.639-20.043-.006-27.688l-41.975-41.968a81.7 81.7 0 0 0 11.937-42.453c0-45.383-36.752-82.134-82.105-82.15C74.768 31 38 67.759 38 113.126c0 45.352 36.76 82.087 82.121 82.087 15.564 0 30.078-4.402 42.47-11.921l41.981 41.974c7.65 7.648 20.052 7.645 27.698-.007M69.316 113.134a50.88 50.88 0 0 1 50.797-50.803 50.86 50.86 0 0 1 50.789 50.795 50.866 50.866 0 0 1-50.781 50.788 50.884 50.884 0 0 1-50.79-50.796z"/></svg>
